blockchains/ethereum/assets/0x7C5A0CE9267ED19B22F8cae653F198e3E8daf098/logo.svg

<svg fill="none" height="250" viewBox="0 0 250 250" width="250" xmlns="http://www.w3.org/2000/svg" xmlns:xlink="http://www.w3.org/1999/xlink"><clipPath id="a"><path d="m0 0h250v250h-250z"/></clipPath><g clip-path="url(#a)"><path d="m125 250c69.036 0 125-55.964 125-125 0-69.0356-55.964-125-125-125-69.0356 0-125 55.9644-125 125 0 69.036 55.9644 125 125 125z" fill="#2b77b3"/><path d="m210.937 125.307c-.367 47.718-39.039 85.984-86.539 85.625-47.5387-.352-85.7184-39.196-85.3356-86.813.3906-47.164 39.1719-85.3671 86.3286-85.0546 47.5.3203 85.89 39.0313 85.546 86.2496zm-165.6558-.274c.0859 43.906 35.6094 79.352 79.6018 79.453 44.039.078 79.969-35.609 79.82-79.562-.164-45.7815-38.086-80.3127-81.734-79.5627-42.2034.7187-77.7738 36.5937-77.6878 79.6717zm100.6638-37.3123-3.179 10.1718c-5.922-.9765-11.407-2.1406-16.961-2.6875-3.297-.3203-6.719.5391-7.993 4.25-1.312 3.805-1.468 7.859 1.68 10.797 3.235 3.008 7.031 5.391 10.578 8.062 3.258 2.454 6.844 4.594 9.688 7.461 7.711 7.782 9.078 17.219 5.914 27.391-1.875 6.031-6.344 9.844-12.063 12.156-8.75 3.547-23.648 1.797-32.015-3.828l3.672-10.656c5.328 1.406 10.203 3.094 15.218 3.89 4.782.758 9.789.024 12.243-4.859 2.468-4.922 1.687-10.101-2.18-14.055-2.985-3.046-6.727-5.367-10.219-7.906-2.328-1.687-4.93-3.015-7.195-4.781-4.393-3.359-7.521-8.105-8.876-13.466-1.354-5.361-.856-11.0231 1.415-16.0653 1.001-2.4079 2.567-4.539 4.566-6.2131s4.372-2.8418 6.918-3.4041c9.805-2.3282 19.313-1.2735 28.789 3.75zm-63.1248 35.8593c.0002 2.614-1.0312 5.122-2.87 6.98s-4.3365 2.915-6.9503 2.942c-5.4687.023-10.1406-4.742-10.0156-10.188.103-2.612 1.2131-5.083 3.0977-6.895 1.8846-1.811 4.3974-2.823 7.0117-2.823 5.4687.078 9.7656 4.492 9.7344 9.984zm94.4768-9.711c5.453-.008 9.515 4.016 9.586 9.5.03 1.325-.206 2.643-.694 3.875-.488 1.233-1.219 2.354-2.148 3.299-.93.945-2.039 1.694-3.264 2.202-1.224.508-2.538.766-3.863.757-2.616-.043-5.109-1.115-6.94-2.984s-2.852-4.384-2.841-7c0-5.719 4.14-9.649 10.164-9.649z" fill="#fff"/></g></svg>

<svg width="250" height="250" viewBox="0 0 250 250" fill="none" xmlns="http://www.w3.org/2000/svg">
<g clip-path="url(#clip0_31_1151)">
<path d="M125 250C194.036 250 250 194.036 250 125C250 55.9644 194.036 0 125 0C55.9644 0 0 55.9644 0 125C0 194.036 55.9644 250 125 250Z" fill="#2B77B3"/>
<path d="M210.937 125.307C210.57 173.025 171.898 211.291 124.398 210.932C76.8593 210.58 38.6796 171.736 39.0624 124.119C39.453 76.955 78.2343 38.7519 125.391 39.0644C172.891 39.3847 211.281 78.0957 210.937 125.314V125.307ZM45.2812 125.033C45.3671 168.939 80.8906 204.385 124.883 204.486C168.922 204.564 204.852 168.877 204.703 124.924C204.539 79.1425 166.617 44.6113 122.969 45.3613C80.7656 46.08 45.1952 81.955 45.2812 125.033ZM145.945 87.7207L142.766 97.8925C136.844 96.916 131.359 95.7519 125.805 95.205C122.508 94.8847 119.086 95.7441 117.812 99.455C116.5 103.26 116.344 107.314 119.492 110.252C122.727 113.26 126.523 115.643 130.07 118.314C133.328 120.768 136.914 122.908 139.758 125.775C147.469 133.557 148.836 142.994 145.672 153.166C143.797 159.197 139.328 163.01 133.609 165.322C124.859 168.869 109.961 167.119 101.594 161.494L105.266 150.838C110.594 152.244 115.469 153.932 120.484 154.728C125.266 155.486 130.273 154.752 132.727 149.869C135.195 144.947 134.414 139.768 130.547 135.814C127.562 132.768 123.82 130.447 120.328 127.908C118 126.221 115.398 124.893 113.133 123.127C108.74 119.768 105.612 115.022 104.257 109.661C102.903 104.3 103.401 98.6379 105.672 93.5957C106.673 91.1878 108.239 89.0567 110.238 87.3826C112.237 85.7085 114.61 84.5408 117.156 83.9785C126.961 81.6503 136.469 82.705 145.945 87.7285V87.7207ZM82.8202 123.58C82.8204 126.194 81.789 128.702 79.9502 130.56C78.1114 132.418 75.6137 133.475 72.9999 133.502C67.5312 133.525 62.8593 128.76 62.9843 123.314C63.0873 120.702 64.1974 118.231 66.082 116.419C67.9666 114.608 70.4794 113.596 73.0937 113.596C78.5624 113.674 82.8593 118.088 82.8281 123.58H82.8202ZM177.297 113.869C182.75 113.861 186.812 117.885 186.883 123.369C186.913 124.694 186.677 126.012 186.189 127.244C185.701 128.477 184.97 129.598 184.041 130.543C183.111 131.488 182.002 132.237 180.777 132.745C179.553 133.253 178.239 133.511 176.914 133.502C174.298 133.459 171.805 132.387 169.974 130.518C168.143 128.649 167.122 126.134 167.133 123.518C167.133 117.799 171.273 113.869 177.297 113.869Z" fill="white"/>
</g>
<defs>
<clipPath id="clip0_31_1151">
<rect width="250" height="250" fill="white"/>
</clipPath>
</defs>
</svg>
